X:1058
M:6/8
L:1/8
Q:3/8=104
K:D
a|ac'a gee|fdd  edc   |dcB fed|cAA A2
  ffe  dfd|cAa Ha2g/f/|bed cAd|edc d2|]

